svgs/solid/luchador-mask.svg

<svg xmlns="http://www.w3.org/2000/svg" viewBox="0 0 448 512"><!-- Font Awesome Pro 6.0.0-alpha2 by @fontawesome - https://fontawesome.com License - https://fontawesome.com/license (Commercial License) --><path d="M262.75 320C255.875 305.25 244.25 286.625 224 266.75C203.75 286.625 192.125 305.25 185.25 320H262.75ZM128 384C128 401.625 142.375 416 160 416H288C305.625 416 320 401.625 320 384S305.625 352 288 352H160C142.375 352 128 366.375 128 384ZM192 245.25C192 215.875 170.5 192 144 192H96V202.75C96 232.125 117.5 256 144 256H192V245.25ZM256 245.25V256C256.312 256.375 256.188 256.188 256.047 256H304C330.5 256 352 232.125 352 202.75V192H304C277.5 192 256 215.875 256 245.25ZM224 0C100.289 0 0 100.289 0 224V320C0 426.039 85.961 512 192 512H256C362.039 512 448 426.039 448 320V224C448 100.289 347.711 0 224 0ZM384 202.75C384 249.75 348.25 288 304 288H281.5C288.875 300.25 294 311.375 297.25 320.875C328.25 325.5 351.875 351.875 351.875 384C351.875 419.5 322.5 448 287 448H160.875C125.375 448 96 419.5 96 384C96 351.875 119.75 325.5 150.625 320.875C153.875 311.5 159 300.25 166.375 288H144C99.75 288 64 249.75 64 202.75V172C64 165.375 69.375 160 76 160H144C181.223 160 211.828 187.172 220.703 224H227.18C236.18 187.172 266.898 160 304 160H372C378.625 160 384 165.375 384 172V202.75Z"/></svg>

<svg xmlns="http://www.w3.org/2000/svg" viewBox="0 0 448 512"><!--! Font Awesome Pro 6.0.0-alpha3 by @fontawesome - https://fontawesome.com License - https://fontawesome.com/license (Commercial License) --><path d="M262.8 320C255.9 305.3 244.3 286.6 224 266.8C203.8 286.6 192.1 305.3 185.3 320H262.8zM128 384c0 17.62 14.38 32 32 32h128c17.62 0 32-14.38 32-32s-14.38-32-32-32H160C142.4 352 128 366.4 128 384zM192 245.2C192 215.9 170.5 192 144 192H96v10.75C96 232.1 117.5 256 144 256H192V245.2zM256 245.2L256 256c.3125 .375 .1406 .1875 0 0H304C330.5 256 352 232.1 352 202.8V192h-48C277.5 192 256 215.9 256 245.2zM224 0C100.3 0 0 100.3 0 224v96c0 106 85.96 192 192 192h64c106 0 192-85.96 192-192V224C448 100.3 347.7 0 224 0zM384 202.8C384 249.8 348.3 288 304 288h-22.5c7.375 12.25 12.5 23.38 15.75 32.88c31 4.625 54.63 31 54.63 63.13c0 35.5-29.38 64-64.88 64H160.9C125.4 448 96 419.5 96 384c0-32.13 23.75-58.5 54.63-63.13C153.9 311.5 159 300.3 166.4 288H144C99.75 288 64 249.8 64 202.8V172C64 165.4 69.38 160 76 160l67.97 .0417c37.22 0 67.86 27.13 76.73 63.96h6.477c9-36.83 39.75-64 76.85-64H372C378.6 160 384 165.4 384 172V202.8z"/></svg>
